X: 112
T:Highland Laddie
M:4/4
L:1/8
F:http://blackrosetheband.googlepages.com/ABCTUNES.ABC May 2009
K:A
"A"A3 B c2 e2|dcBA c3 c|"E"c2 B2 B2 AB|c2 B2 B4|
"A"A3 B c2 e2|dcBAc3 B|"F#m"A2 F2 F2 EF|1 "E"A2 F2 F2 E2:|2 "F#m"A2 F2 F4|
|:"D"f2 af "A"e2c2|"E"dcBA "F#m"c3 c|"E"c2 B2 B2 AB|c2 B2 B2 A2|
"D"f2af "A"e2 c2|"E"dcBA "F#m"c3 B|"E"A2 F2 F2 EF|1 A2 F2 F2 E2:|2 "Fm"A2 F2F4||

